X: 19954
T: Jigging The Donkey
R: reel
M: 4/4
K: Adorian
~A3G ABcB|(3ABA GE D2 (3EFG|~A3G ABcB|(3ABA GE AD~D2:|
ea{b}ag ~e3d|cdeg {a}gedg|ea{b}ag de{g}ed|cABG A2 (3Bcd|
ea{b}ag ~e3d|cdeg {a}gedB|{d}c2AB cdef|gedB (3cdc Bc||

